X:1
T:District 8 High School Audition Etude
T:District 8 High School Audition Etude 
T:Rotation D
L:1/8
Q:1/4=116
M:4/4
K:C
V:1 bass nm="Piano" snm="Pno."
V:1
!f! (CB,/)A,/ G,/F,/E,/D,/ .C,.G, C2 |[M:7/8] G,(F,/E,/ F,E,/C,/) D, C, D, | %2
[M:4/4] E,/F,/!>!C, F,/G,/!>!E, F,(E,/D,/ E,2) |[M:3/4] C,z/B,,/ C,/z/E,/F,/ G,F, | %4
[M:4/4] E,!>!E- E/F/E/D/ ED C/EC/ | (FE) .B,C (C,/G,/C/D/) DG, | G,C (F,/E,/D,/C,/) (D,G,) CB, | %7
[M:2/4]!>(! (3F,G,C (B,D/B,/)!>)! |[M:4/4]!mp! (C/B,/A,/G,/ F,)C (D/C/B,/A,/ G,)D | %9
!<(! (E/D/C) B,D (E/C/).C/.C/ ._B,._E,!<)! |!mf! G,/!>!E,C,/ B,,D, C,G, G,B, | %11
 F,/E,G,/ F,A,/G,/- G,_E, C,=E, |[M:3/8] G,E,/E,/C, | E,F,/F,/A, | %14
[M:4/4]!f! (E,/G,/)G,/A,/ F,/D,/D,/E,/ C,G,F,G, | %15
"^rit."[Q:1/4=90] E,/G,C,/!>(! E,/F,/G,/B,/ .C/.G,/!>!E,!mf! !>!!fermata!C,2!>)! |] %16

